icons/1_Primary/Samtrade FX.svg

<svg width="1024" height="1024" viewBox="0 0 1024 1024" fill="none" xmlns="http://www.w3.org/2000/svg">
<g clip-path="url(#clip0_2_3390)">
<path d="M512 1024C794.77 1024 1024 794.77 1024 512C1024 229.23 794.77 0 512 0C229.23 0 0 229.23 0 512C0 794.77 229.23 1024 512 1024Z" fill="#54688C"/>
<path d="M332.661 476.09C365.131 463.69 398.351 453.28 432.661 441.53C430.661 416.68 442.751 399.72 460.021 381.79C471.591 369.79 480.871 364.32 493.401 356.22C495.389 354.934 497.464 353.788 499.611 352.79C576.281 316.79 603.821 322.79 644.271 305C662.901 296.82 680.731 285.84 681.001 277C682.441 277.38 683.271 277.75 684.721 278.13C686.511 290.98 693.311 310.87 660.871 334.67C628.771 358.23 612.391 360.06 582.601 378.22C566.371 388.1 560.481 391.99 545.601 403.79C537.061 410.52 528.921 418.2 528.871 431.05C533.391 432.93 537.411 434.65 541.471 436.26C582.621 452.44 623.891 468.26 664.851 484.97C681.041 491.57 694.541 501.29 693.061 522.16C692.901 524.44 695.421 527.98 697.661 529.24C720.501 542.24 732.411 552.1 764.661 570.17C778.411 579.27 781.391 577.31 785.841 588.47C787.891 593.62 784.841 605.65 783.621 612.7C780.541 629.85 776.231 635.03 770.791 644.02C762.381 657.89 740.871 661.02 732.621 662.24C719.371 663.72 700.151 665.33 697.941 665.7C695.451 666.1 687.681 674.37 686.181 675.41C669.991 686.82 660.181 689.41 641.321 688.94C621.891 688.4 602.431 687.65 582.991 688.05C551.621 688.67 524.451 700.26 501.651 721.89C494.001 729.1 482.811 740.48 476.171 747C415.301 657.15 334.351 584.46 237.471 532.77C260.771 506.74 300.171 488.52 332.661 476.09ZM334.001 564.81C390.901 616.23 444.201 667.81 479.061 734.04L521.061 682.19C503.201 678.54 505.881 678.06 485.351 672.05C461.001 661.34 434.941 653 432.591 616.63C454.811 655.38 490.591 658.17 525.861 662.55C560.471 666.84 595.031 671.55 629.611 675.97C645.971 678.04 659.541 680.72 670.161 672.51C672.361 670.66 677.071 666.51 677.071 664.78C643.271 663.14 669.071 663.2 638.901 661.78C645.281 657.43 640.301 659.9 653.331 652.28L699.741 651C709.989 651.329 720.246 650.71 730.381 649.15C736.831 648.26 753.751 646.09 757.181 641.99C760.611 637.89 765.721 626.85 767.181 621.3C767.771 619.13 751.181 601.3 756.281 601.6C793.841 603.85 756.551 583.27 741.341 584.26C736.051 584.61 731.551 589.63 724.111 594C738.111 565.34 738.241 565.1 712.491 549.1C701.241 542.1 689.281 536.27 677.561 529.86C681.661 507.34 679.561 502.86 656.981 494.22C618.001 479.31 578.671 465 539.471 450.38L537.631 454.33C553.471 462.083 569.307 469.847 585.141 477.62C584.871 478.56 584.581 479.5 584.301 480.44L547.481 471C530.321 485.28 515.381 497.73 500.101 510.45C501.301 512.81 503.951 518.07 505.981 522.07L423.651 501.89C424.211 538.49 439.951 583.04 431.921 571.37C417.001 549.7 413.001 524.75 412.381 499.25C412.061 486.56 418.781 483.63 430.911 489.08C438.301 492.41 445.911 495.25 456.521 499.55C448.791 485.3 443.301 474.33 436.851 463.97C435.291 461.5 430.241 459.57 427.181 460.03C416.291 461.64 401.591 467.19 391.181 470.66C348.991 484.66 313.981 502.19 275.731 526.1C292.461 536.51 306.621 546.1 322.011 555.67L334.001 564.81ZM509.701 485.16C529.811 473.49 531.471 467.9 521.771 451.08C511.471 433.08 512.641 418.21 528.711 403.15C542.191 390.54 558.151 380.15 574.161 370.79C591.071 360.89 633.081 343.61 645.471 335.18C663.241 323.05 677.911 314.33 681.151 287.73C643.361 334.99 611.401 311.26 503.731 365.63C499.447 367.768 495.42 370.388 491.731 373.44C480.401 382.91 469.511 393.14 460.641 404.76C440.541 431.14 444.641 466.59 469.261 489C480.051 498.82 492.151 493.88 502.431 490M657.761 564.87C644.511 562.87 632.491 562.35 621.301 559.02C601.861 553.25 583.131 545.17 563.721 539.24C555.881 536.83 547.071 537.5 538.421 539.88C543.421 541.03 548.481 542.13 553.481 543.31C565.891 546.24 575.741 551 582.001 564C591.681 584 607.611 586.6 625.151 574.63C628.521 572.32 634.791 573.29 639.501 574.12C649.541 575.89 657.331 575.33 657.811 564.89L657.761 564.87ZM463.951 644.14C475.521 672.59 511.731 686.38 547.581 677.07C517.001 671.46 487.931 667.73 463.951 644.14Z" fill="white"/>
</g>
<defs>
<clipPath id="clip0_2_3390">
<rect width="1024" height="1024" fill="white"/>
</clipPath>
</defs>
</svg>

<svg xmlns="http://www.w3.org/2000/svg" width="1024" height="1024" fill="none">
   <g clip-path="url(#a)">
      <path fill="#54688C" d="M512 1024c282.77 0 512-229.23 512-512S794.77 0 512 0 0 229.23 0 512s229.23 512 512 512Z"/>
      <path fill="#fff" d="M332.661 476.09c32.47-12.4 65.69-22.81 100-34.56-2-24.85 10.09-41.81 27.36-59.74 11.57-12 20.85-17.47 33.38-25.57a51.057 51.057 0 0 1 6.21-3.43c76.67-36 104.21-30 144.66-47.79 18.63-8.18 36.46-19.16 36.73-28 1.44.38 2.27.75 3.72 1.13 1.79 12.85 8.59 32.74-23.85 56.54-32.1 23.56-48.48 25.39-78.27 43.55-16.23 9.88-22.12 13.77-37 25.57-8.54 6.73-16.68 14.41-16.73 27.26 4.52 1.88 8.54 3.6 12.6 5.21 41.15 16.18 82.42 32 123.38 48.71 16.19 6.6 29.69 16.32 28.21 37.19-.16 2.28 2.36 5.82 4.6 7.08 22.84 13 34.75 22.86 67 40.93 13.75 9.1 16.73 7.14 21.18 18.3 2.05 5.15-1 17.18-2.22 24.23-3.08 17.15-7.39 22.33-12.83 31.32-8.41 13.87-29.92 17-38.17 18.22-13.25 1.48-32.47 3.09-34.68 3.46-2.49.4-10.26 8.67-11.76 9.71-16.19 11.41-26 14-44.86 13.53-19.43-.54-38.89-1.29-58.33-.89-31.37.62-58.54 12.21-81.34 33.84-7.65 7.21-18.84 18.59-25.48 25.11-60.87-89.85-141.82-162.54-238.7-214.23 23.3-26.03 62.7-44.25 95.19-56.68Zm1.34 88.72c56.9 51.42 110.2 103 145.06 169.23l42-51.85c-17.86-3.65-15.18-4.13-35.71-10.14-24.35-10.71-50.41-19.05-52.76-55.42 22.22 38.75 58 41.54 93.27 45.92 34.61 4.29 69.17 9 103.75 13.42 16.36 2.07 29.93 4.75 40.55-3.46 2.2-1.85 6.91-6 6.91-7.73-33.8-1.64-8-1.58-38.17-3 6.38-4.35 1.4-1.88 14.43-9.5l46.41-1.28c10.248.329 20.505-.29 30.64-1.85 6.45-.89 23.37-3.06 26.8-7.16 3.43-4.1 8.54-15.14 10-20.69.59-2.17-16-20-10.9-19.7 37.56 2.25.27-18.33-14.94-17.34-5.29.35-9.79 5.37-17.23 9.74 14-28.66 14.13-28.9-11.62-44.9-11.25-7-23.21-12.83-34.93-19.24 4.1-22.52 2-27-20.58-35.64-38.98-14.91-78.31-29.22-117.51-43.84l-1.84 3.95c15.84 7.753 31.676 15.517 47.51 23.29-.27.94-.56 1.88-.84 2.82l-36.82-9.44c-17.16 14.28-32.1 26.73-47.38 39.45 1.2 2.36 3.85 7.62 5.88 11.62l-82.33-20.18c.56 36.6 16.3 81.15 8.27 69.48-14.92-21.67-18.92-46.62-19.54-72.12-.32-12.69 6.4-15.62 18.53-10.17 7.39 3.33 15 6.17 25.61 10.47-7.73-14.25-13.22-25.22-19.67-35.58-1.56-2.47-6.61-4.4-9.67-3.94-10.89 1.61-25.59 7.16-36 10.63-42.19 14-77.2 31.53-115.45 55.44 16.73 10.41 30.89 20 46.28 29.57l11.99 9.14Zm175.7-79.65c20.11-11.67 21.77-17.26 12.07-34.08-10.3-18-9.13-32.87 6.94-47.93 13.48-12.61 29.44-23 45.45-32.36 16.91-9.9 58.92-27.18 71.31-35.61 17.77-12.13 32.44-20.85 35.68-47.45-37.79 47.26-69.75 23.53-177.42 77.9a62.86 62.86 0 0 0-12 7.81c-11.33 9.47-22.22 19.7-31.09 31.32-20.1 26.38-16 61.83 8.62 84.24 10.79 9.82 22.89 4.88 33.17 1m155.33 74.87c-13.25-2-25.27-2.52-36.46-5.85-19.44-5.77-38.17-13.85-57.58-19.78-7.84-2.41-16.65-1.74-25.3.64 5 1.15 10.06 2.25 15.06 3.43 12.41 2.93 22.26 7.69 28.52 20.69 9.68 20 25.61 22.6 43.15 10.63 3.37-2.31 9.64-1.34 14.35-.51 10.04 1.77 17.83 1.21 18.31-9.23l-.05-.02Zm-193.81 79.27c11.57 28.45 47.78 42.24 83.63 32.93-30.58-5.61-59.65-9.34-83.63-32.93Z"/>
   </g>
   <defs>
      <clipPath id="a">
         <path fill="#fff" d="M0 0h1024v1024H0z"/>
      </clipPath>
   </defs>
</svg>
